icons/light/folder-expanded.svg

<svg width="16" height="16" viewBox="0 0 16 16" fill="none" xmlns="http://www.w3.org/2000/svg">
<path d="M13 3.5V6H12V4H6.5L6.146 3.854L5.293 3H1V10.418L0.025 13.342L0.5 14L0 13.5V2.5L0.5 2H5.5L5.854 2.146L6.707 3H12.5L13 3.5Z" fill="#424242"/>
<path d="M15.151 6H8.50002L8.14602 6.146L7.29302 7H2.50002L2.02502 7.342L0.0250244 13.342L0.500024 14L12.516 14L13 13.629L15.634 6.629L15.151 6ZM12.133 13L1.19302 13L2.86002 8H7.50002L7.85402 7.854L8.70702 7H14.5L12.133 13Z" fill="#424242"/>
</svg>

<svg xmlns="http://www.w3.org/2000/svg" width="16" height="16" fill="#424242" xmlns:v="https://vecta.io/nano"><path d="M13 3.5V6h-1V4H6.5l-.354-.146L5.293 3H1v7.418l-.975 2.924L.5 14l-.5-.5v-11L.5 2h5l.354.146.853.854H12.5l.5.5z"/><path d="M15.151 6H8.5l-.354.146L7.293 7H2.5l-.475.342-2 6L.5 14h12.016l.484-.371 2.634-7L15.151 6zm-3.018 7H1.193L2.86 8H7.5l.354-.146L8.707 7H14.5l-2.367 6z"/></svg>
